/* XPM */
static char * close_prelight_xpm[] = {
"24 26 4 1",
" 	c None",
".	c #211821",
"+	c #e7e2ea",
"@	c #211821",
"@@@@@@@@@@@@@@@@@@@@@@@@",
"........................",
"........................",
"........................",
"........................",
"........................",
"........................",
"........................",
"........................",
"........++....++........",
"........+++..+++........",
".........++++++.........",
"..........++++..........",
"..........++++..........",
".........++++++.........",
"........+++..+++........",
"........++....++........",
"........................",
"........................",
"........................",
"........................",
"........................",
"........................",
"........................",
"........................",
"........................"};
